src/icons/openapi.svg

<svg
  width="24"
  height="24"
  viewBox="0 0 24 24"
  fill="none"
  xmlns="http://www.w3.org/2000/svg"
>
  <path
    d="M10.86 4.29H10.5C10.1279 4.30686 9.75714 4.34694 9.39 4.41H9.36C9.27978 4.42561 9.19978 4.44228 9.12 4.46L9.03 4.48L8.88 4.51H8.85C8.1121 4.68515 7.39965 4.954 6.73 5.31L6.6 5.38C6.54639 5.40951 6.49305 5.43951 6.44 5.47L6.33 5.53H6.32L6.29 5.56L6.38 5.71L9.01 10.07L9.16 9.98C9.21273 9.95214 9.26607 9.92546 9.32 9.9C9.69152 9.72319 10.0907 9.61157 10.5 9.57C10.6196 9.55749 10.7397 9.55081 10.86 9.55V4.3V4.29ZM5.98 5.75L5.61 6C5.34527 6.19586 5.09155 6.40618 4.85 6.63L8.59 10.37L8.71 10.27L8.7 10.25L5.98 5.75ZM14.45 13.15L14.44 13.32L14.43 13.5C14.3598 14.2052 14.0813 14.8736 13.63 15.42L13.52 15.55C13.48 15.59 13.44 15.65 13.39 15.68L17.12 19.41L17.36 19.15C17.6343 18.8542 17.8882 18.5401 18.12 18.21L18.15 18.18C18.2011 18.104 18.2511 18.0274 18.3 17.95L18.33 17.89C19.1664 16.5734 19.6391 15.0587 19.7 13.5V13.32L19.71 13.14H14.45V13.15ZM2 13.5V13.58L2.01 13.73C2.01557 13.8068 2.02224 13.8834 2.03 13.96V14L2.05 14.19V14.21L2.08 14.41C2.14 14.83 2.23 15.25 2.35 15.66L2.42 15.86V15.87C2.43933 15.9335 2.45933 15.9969 2.48 16.06L2.5 16.1L2.55 16.25L2.58 16.32L2.62 16.44L2.66 16.54L2.7 16.63L2.75 16.75L2.79 16.82L2.85 16.96L2.95 17.16L2.96 17.19L3.06 17.36L3.08 17.4L7.58 14.69L7.61 14.68C7.43301 14.3086 7.32137 13.9094 7.28 13.5H2ZM7.78 15L3.27 17.7L3.48 18.04L3.49 18.05L3.5 18.07C3.50641 18.0802 3.51308 18.0902 3.52 18.1L3.76 18.44H3.77V18.45L3.88 18.6L3.9 18.62L4.02 18.76L4.04 18.79L4.15 18.92L4.2 18.98L4.3 19.08L4.35 19.14L4.37 19.16L4.44 19.24L4.47 19.27L4.59 19.4L8.32 15.67C8.27558 15.6278 8.23223 15.5844 8.19 15.54C8.1523 15.4975 8.11562 15.4542 8.08 15.41C8.04565 15.3675 8.01231 15.3241 7.98 15.28C7.94557 15.2341 7.91223 15.1874 7.88 15.14L7.78 14.99V15ZM12.71 16.22L12.55 16.3C12.0274 16.5813 11.4434 16.729 10.85 16.73C10.5012 16.7303 10.1542 16.6798 9.82 16.58L9.66 16.53C9.60262 16.5084 9.54593 16.4851 9.49 16.46L7.62 21L7.55 21.18L7.48 21.33H7.5L7.51 21.34L7.65 21.39L7.82 21.46C7.85 21.46 7.87 21.48 7.9 21.49C8.48343 21.6955 9.08669 21.8396 9.7 21.92L9.86 21.94L10 21.96H10.04C10.1664 21.9728 10.2931 21.9828 10.42 21.99H10.86C11.3522 21.9941 11.8439 21.9573 12.33 21.88H12.35L12.5 21.84L12.6 21.83C12.6769 21.8142 12.7535 21.7976 12.83 21.78C13.5781 21.607 14.3008 21.3381 14.98 20.98L15.12 20.9L15.27 20.82L15.37 20.76H15.38L15.39 20.75L15.43 20.73L15.33 20.58L15.24 20.42L12.71 16.22Z"
    fill="#8BC34A"
  />
  <path
    d="M11.21 4.3V9.57C11.4822 9.59668 11.7505 9.6537 12.01 9.74L15.9 5.86C15.7561 5.75922 15.6094 5.66252 15.46 5.57H15.44L15.3 5.47L15.21 5.43L15.13 5.38L14.99 5.31L14.97 5.29C14.6619 5.13137 14.3447 4.99113 14.02 4.87L13.99 4.86L13.78 4.78C13.2026 4.57932 12.6062 4.43857 12 4.36L11.92 4.35H11.85L11.71 4.33H11.66C11.6034 4.32251 11.5468 4.31584 11.49 4.31H11.43L11.28 4.3H11.21ZM4.6 6.87L4.47 7L4.35 7.13C4.07934 7.42275 3.82877 7.73346 3.6 8.06L3.56 8.11C3.50819 8.18547 3.45817 8.26216 3.41 8.34L3.38 8.38C2.54191 9.69954 2.06914 11.2179 2.01 12.78V12.95L2 13.13H7.26L7.27 12.95L7.28 12.78C7.35018 12.0748 7.62867 11.4064 8.08 10.86C8.11 10.81 8.16 10.77 8.2 10.73C8.24 10.68 8.27 10.63 8.32 10.59L4.6 6.88V6.87ZM18.14 8.1L14.25 11.99C14.35 12.25 14.4 12.51 14.43 12.79H19.71V12.71C19.7037 12.6633 19.6971 12.6166 19.69 12.57V12.5L19.68 12.33V12.29C19.6705 12.2233 19.6605 12.1566 19.65 12.09V12.08C19.6407 12.0099 19.6307 11.9399 19.62 11.87C19.5596 11.4508 19.4694 11.0364 19.35 10.63V10.62C19.3308 10.5531 19.3108 10.4864 19.29 10.42C19.2674 10.3564 19.2441 10.293 19.22 10.23L19.21 10.19C19.1847 10.1162 19.158 10.0428 19.13 9.97C19.1138 9.92983 19.0971 9.88982 19.08 9.85L19 9.65L18.95 9.54C18.9174 9.46965 18.8841 9.39965 18.85 9.33L18.83 9.29L18.75 9.12V9.1C18.7172 9.04302 18.6839 8.98635 18.65 8.93V8.92C18.4984 8.63778 18.3315 8.36404 18.15 8.1H18.14ZM13.13 15.92C13.0875 15.9544 13.0441 15.9877 13 16.02L13.01 16.03L15.73 20.53L16.1 20.28C16.3646 20.084 16.6183 19.8737 16.86 19.65L13.14 15.94L13.13 15.92ZM8.58 15.92L8.57 15.94L4.85 19.65L5.01 19.81C5.03 19.81 5.05 19.83 5.07 19.85L5.2 19.95L5.23 19.98L5.38 20.1L5.39 20.12L5.55 20.24C5.77578 20.4076 6.00937 20.5645 6.25 20.71L6.28 20.73C6.42763 20.8175 6.57769 20.9009 6.73 20.98L6.75 20.99C6.88149 21.0603 7.01488 21.127 7.15 21.19L7.29 20.87L9.16 16.33V16.31C8.95431 16.1994 8.76003 16.0688 8.58 15.92Z"
    fill="#8BC34A"
  />
  <path
    d="M19.53 2C19.2069 1.99986 18.8869 2.06338 18.5884 2.18692C18.2898 2.31046 18.0185 2.4916 17.79 2.72C17.4246 3.08486 17.1828 3.55504 17.0985 4.06445C17.0142 4.57387 17.0917 5.09689 17.32 5.56L11.95 10.93C11.4251 10.6706 10.8251 10.6061 10.257 10.748C9.68897 10.8899 9.18979 11.229 8.84854 11.7048C8.50729 12.1806 8.34615 12.7621 8.39388 13.3457C8.4416 13.9292 8.69508 14.4769 9.1091 14.8909C9.52313 15.3049 10.0708 15.5584 10.6543 15.6061C11.2379 15.6538 11.8194 15.4927 12.2952 15.1515C12.771 14.8102 13.1101 14.311 13.252 13.743C13.3939 13.1749 13.3294 12.5749 13.07 12.05L18.44 6.68C18.9647 6.93829 19.5641 7.002 20.1314 6.85979C20.6987 6.71758 21.1971 6.37868 21.538 5.90341C21.8788 5.42814 22.04 4.84734 21.9927 4.2644C21.9455 3.68145 21.6929 3.13418 21.28 2.72C21.0503 2.49041 20.7774 2.30857 20.477 2.185C20.1766 2.06142 19.8548 1.99855 19.53 2Z"
    fill="#8BC34A"
  />
</svg>

<svg version="1.1" viewBox="0 0 24 24" xmlns="http://www.w3.org/2000/svg">
  <path d="m10.86 4.29h-0.36a8.95 8.95 0 0 0-1.11 0.12h-0.03a9.3 9.3 0 0 0-0.24 0.05l-0.09 0.02-0.15 0.03h-0.03a8.89 8.89 0 0 0-2.12 0.8l-0.13 0.07a9.92 9.92 0 0 0-0.16 0.09l-0.11 0.06h-0.01l-0.03 0.03 0.09 0.15 2.63 4.36 0.15-0.09a3.98 3.98 0 0 1 0.16-0.08 3.59 3.59 0 0 1 1.18-0.33 3.7 3.7 0 0 1 0.36-0.02v-5.25zm-4.88 1.46-0.37 0.25a8.95 8.95 0 0 0-0.76 0.63l3.74 3.74 0.12-0.1-0.01-0.02zm8.47 7.4-0.01 0.17-0.01 0.18a3.57 3.57 0 0 1-0.8 1.92l-0.11 0.13c-0.04 0.04-0.08 0.1-0.13 0.13l3.73 3.73 0.24-0.26a8.94 8.94 0 0 0 0.76-0.94l0.03-0.03a9.77 9.77 0 0 0 0.15-0.23l0.03-0.06a8.83 8.83 0 0 0 1.37-4.39v-0.18l0.01-0.18h-5.26zm-12.45 0.35v0.08l0.01 0.15a8.07 8.07 0 0 0 0.02 0.23v0.04l0.02 0.19v0.02l0.03 0.2c0.06 0.42 0.15 0.84 0.27 1.25l0.07 0.2v0.01a9.46 9.46 0 0 0 0.06 0.19l0.02 0.04 0.05 0.15 0.03 0.07 0.04 0.12 0.04 0.1 0.04 0.09 0.05 0.12 0.04 0.07 0.06 0.14 0.1 0.2 0.01 0.03 0.1 0.17 0.02 0.04 4.5-2.71 0.03-0.01a3.58 3.58 0 0 1-0.33-1.18h-5.28zm5.78 1.5-4.51 2.7 0.21 0.34 0.01 0.01 0.01 0.02a0.7 0.7 0 0 0 0.02 0.03l0.24 0.34h0.01v0.01l0.11 0.15 0.02 0.02 0.12 0.14 0.02 0.03 0.11 0.13 0.05 0.06 0.1 0.1 0.05 0.06 0.02 0.02 0.07 0.08 0.03 0.03 0.12 0.13 3.73-3.73a3.64 3.64 0 0 1-0.13-0.13 3.56 3.56 0 0 1-0.11-0.13 3.48 3.48 0 0 1-0.1-0.13 3.64 3.64 0 0 1-0.1-0.14l-0.1-0.15zm4.93 1.22-0.16 0.08a3.6 3.6 0 0 1-1.7 0.43 3.59 3.59 0 0 1-1.03-0.15l-0.16-0.05a2.97 2.97 0 0 1-0.17-0.07l-1.87 4.54-0.07 0.18-0.07 0.15h0.02l0.01 0.01 0.14 0.05 0.17 0.07c0.03 0 0.05 0.02 0.08 0.03a8.9 8.9 0 0 0 1.8 0.43l0.16 0.02 0.14 0.02h0.04a8.66 8.66 0 0 0 0.38 0.03h0.44a8.88 8.88 0 0 0 1.47-0.11h0.02l0.15-0.04 0.1-0.01a9.86 9.86 0 0 0 0.23-0.05 8.92 8.92 0 0 0 2.15-0.8l0.14-0.08 0.15-0.08 0.1-0.06h0.01l0.01-0.01 0.04-0.02-0.1-0.15-0.09-0.16z" fill="#8bc34a"/>
  <path d="m11.21 4.3v5.27a3.67 3.67 0 0 1 0.8 0.17l3.89-3.88a9.36 9.36 0 0 0-0.44-0.29h-0.02l-0.14-0.1-0.09-0.04-0.08-0.05-0.14-0.07-0.02-0.02a8.78 8.78 0 0 0-0.95-0.42l-0.03-0.01-0.21-0.08a8.91 8.91 0 0 0-1.78-0.42l-0.08-0.01h-0.07l-0.14-0.02h-0.05a5.9 5.9 0 0 0-0.17-0.02h-0.06l-0.15-0.01zm-6.61 2.57-0.13 0.13-0.12 0.13a8.85 8.85 0 0 0-0.75 0.93l-0.04 0.05a5.78 5.78 0 0 0-0.15 0.23l-0.03 0.04a8.83 8.83 0 0 0-1.37 4.4v0.17l-0.01 0.18h5.26l0.01-0.18 0.01-0.17a3.57 3.57 0 0 1 0.8-1.92c0.03-0.05 0.08-0.09 0.12-0.13 0.04-0.05 0.07-0.1 0.12-0.14l-3.72-3.71zm13.54 1.23-3.89 3.89c0.1 0.26 0.15 0.52 0.18 0.8h5.28v-0.08a8.19 8.19 0 0 0-0.02-0.14v-0.07l-0.01-0.17v-0.04a14.38 14.38 0 0 0-0.03-0.2v-0.01a10.66 10.66 0 0 0-0.03-0.21 8.9 8.9 0 0 0-0.27-1.24v-0.01a8.28 8.28 0 0 0-0.06-0.2 8.21 8.21 0 0 0-0.07-0.19l-0.01-0.04a6.3 6.3 0 0 0-0.08-0.22 6.2 6.2 0 0 0-0.05-0.12l-0.08-0.2-0.05-0.11a11.05 11.05 0 0 0-0.1-0.21l-0.02-0.04-0.08-0.17v-0.02a10.39 10.39 0 0 0-0.1-0.17v-0.01a8.81 8.81 0 0 0-0.5-0.82zm-5.01 7.82a3.48 3.48 0 0 1-0.13 0.1l0.01 0.01 2.72 4.5 0.37-0.25a9.03 9.03 0 0 0 0.76-0.63l-3.72-3.71zm-4.55 0-0.01 0.02-3.72 3.71 0.16 0.16c0.02 0 0.04 0.02 0.06 0.04l0.13 0.1 0.03 0.03 0.15 0.12 0.01 0.02 0.16 0.12a8.9 8.9 0 0 0 0.7 0.47l0.03 0.02a9.16 9.16 0 0 0 0.45 0.25l0.02 0.01a8.21 8.21 0 0 0 0.4 0.2l0.14-0.32 1.87-4.54v-0.02a3.55 3.55 0 0 1-0.58-0.39z" fill="#689f38"/>
  <path d="m19.53 2a2.46 2.46 0 0 0-1.74 0.72 2.47 2.47 0 0 0-0.47 2.84l-5.37 5.37a2.47 2.47 0 1 0 1.12 1.12l5.37-5.37a2.47 2.47 0 0 0 2.84-3.96 2.46 2.46 0 0 0-1.75-0.72z" fill="#e0e0e0"/>
 </svg>
